Yaru++/categories/32/preferences-desktop-accessibility.svg

<svg height="32" width="32" xmlns="http://www.w3.org/2000/svg" xmlns:xlink="http://www.w3.org/1999/xlink"><linearGradient id="a" gradientUnits="userSpaceOnUse" x1="344" x2="344" y1="62" y2="106"><stop offset="0" stop-color="#fff"/><stop offset=".125" stop-color="#fff" stop-opacity=".098039"/><stop offset=".92500001" stop-color="#fff" stop-opacity=".098039"/><stop offset="1" stop-color="#fff" stop-opacity=".498039"/></linearGradient><clipPath id="b"><path d="m335.73108 62c-8.82418 0-9.77365.90635-9.7304 9.74838v12.25162 12.25162c-.0433 8.84203.90622 9.74838 9.7304 9.74838h16.53919c8.82418 0 9.7304-.90625 9.7304-9.74838v-12.25162-12.25162c0-8.84213-.90622-9.74838-9.7304-9.74838z"/></clipPath><linearGradient id="c" gradientTransform="matrix(0 1 -1 0 164.000161 -320.500019)" gradientUnits="userSpaceOnUse" x1="321.50003" x2="350.50003" y1="148" y2="148"><stop offset="0" stop-color="#2f5fdd"/><stop offset="1" stop-color="#5884f4"/></linearGradient><path d="m9.0776719 1.5000003c-1.69415 0-3.0388598.0308-4.1798998.19141-1.14103.16064-2.13588.4726-2.87586 1.09179s-1.11651995 1.45612-1.30635995 2.41407c-.18986.95795-.22255 2.08705-.21424 3.51171v7.7910197 7.79688c-.009 1.42131.0247 2.5495.21424 3.50585.18984.95796.56637995 1.79488 1.30635995 2.41407s1.73483.93115 2.87586 1.09179c1.14104.16065 2.4857498.19141 4.1798998.19141h13.8484001c1.69415 0 3.03631-.0307 4.17524-.19141 1.13893-.16075 2.13151-.47425 2.86888-1.09375.73736-.6195 1.1104-1.45363 1.30169-2.41015.19132-.95653.22822-2.08403.22822-3.50781v-7.79688-7.7968797c0-1.42378-.037-2.55128-.22822-3.50781-.19129-.95653-.56433-1.79065-1.30169-2.41015-.73737-.61951-1.72995-.933-2.86888-1.09375-1.13893-.16076-2.48109-.19141-4.17524-.19141z" opacity=".1"/><path d="m9.1272519 1.0000003c-6.4516298 0-7.6602998.58409-7.6263898 6.28227v8.2176497 8.21781c-.034 5.69818 1.17476 6.28227 7.6263898 6.28227h13.7465101c6.45003 0 7.62639-.58403 7.62639-6.28227v-8.21781-8.2176497c0-5.69824-1.17636-6.28227-7.62639-6.28227z" fill="url(#c)"/><path d="m15.998162 7.5020103c-1.10456 0-1.99999.89543-1.99999 1.99998 0 1.1045697.89543 1.9999997 1.99999 1.9999997 1.10457 0 1.99999-.89543 1.99999-1.9999997 0-1.10455-.89542-1.99998-1.99999-1.99998zm-6.9980001 4.9979297v1l2.2377701.004c.52118-.00001.96402.0752 1.32861.23486.35813.14879.65187.3682.86767.65527.22113.27541.37468.60682.46094.98632.0868.38212.0994.78566.12597 1.2124l.00049.006-.009 6.9033h.98584v-4.00215c0-.55229.44771-1 .99999-1s1 .44771 1 1v4.00215h.99999l.009-6.89744c.001-.44248.0421-.85073.12695-1.22412.0864-.38013.2402-.7121.46192-.98778.21581-.28643.50945-.50577.86718-.6543.36441-.15939.88033-.23437 1.32763-.23437l2.20905-.002v-1.00195z" fill="#faf8f6"/><g fill="none"><path d="m9.1272519 1.0000003c-6.4516298 0-7.6602998.58409-7.6263898 6.28227v8.2176497 8.21781c-.034 5.69818 1.17476 6.28227 7.6263898 6.28227h13.7465101c6.45003 0 7.62639-.58403 7.62639-6.28227v-8.21781-8.2176497c0-5.69824-1.17636-6.28227-7.62639-6.28227z" opacity=".4" stroke="#000"/><path clip-path="url(#b)" d="m335.73108 62c-8.82418 0-9.77365.90635-9.7304 9.74838v12.25162 12.25162c-.0433 8.84203.90622 9.74838 9.7304 9.74838h16.53919c8.82418 0 9.7304-.90625 9.7304-9.74838v-12.25162-12.25162c0-8.84213-.90622-9.74838-9.7304-9.74838z" opacity=".7" stroke="url(#a)" stroke-width="2.851031" transform="matrix(.7733047 0 0 .63636364 -250.01667 -37.954546)"/></g></svg>

<?xml version="1.0" encoding="UTF-8" standalone="no"?>
<svg
   xmlns:dc="http://purl.org/dc/elements/1.1/"
   xmlns:cc="http://creativecommons.org/ns#"
   xmlns:rdf="http://www.w3.org/1999/02/22-rdf-syntax-ns#"
   xmlns:svg="http://www.w3.org/2000/svg"
   xmlns="http://www.w3.org/2000/svg"
   xmlns:xlink="http://www.w3.org/1999/xlink"
   xmlns:sodipodi="http://sodipodi.sourceforge.net/DTD/sodipodi-0.dtd"
   xmlns:inkscape="http://www.inkscape.org/namespaces/inkscape"
   width="32"
   height="32"
   version="1.1"
   id="svg8"
   sodipodi:docname="4.svg"
   inkscape:version="0.92.4 (5da689c313, 2019-01-14)">
  <metadata
     id="metadata14">
    <rdf:RDF>
      <cc:Work
         rdf:about="">
        <dc:format>image/svg+xml</dc:format>
        <dc:type
           rdf:resource="http://purl.org/dc/dcmitype/StillImage" />
        <dc:title></dc:title>
      </cc:Work>
    </rdf:RDF>
  </metadata>
  <defs
     id="defs12">
    <clipPath
       clipPathUnits="userSpaceOnUse"
       id="clipPath959">
      <path
         style="color:#000000;display:inline;overflow:visible;visibility:visible;opacity:1;fill:#46a926;fill-opacity:1;fill-rule:nonzero;stroke:none;stroke-width:2;stroke-miterlimit:4;stroke-dasharray:none;stroke-opacity:1;marker:none;enable-background:accumulate"
         d="m 330.1929,133.99999 c -5.61538,0 -6.21958,0.57678 -6.19206,6.20352 v 7.79648 7.79648 c -0.0276,5.62673 0.57668,6.20351 6.19206,6.20351 h 11.615 c 5.6154,0 6.19208,-0.5767 6.19208,-6.20351 v -7.79648 -7.79648 c 0,-5.6268 -0.5767,-6.20352 -6.19208,-6.20352 z"
         id="path961"
         inkscape:connector-curvature="0"
         sodipodi:nodetypes="scccssscsss" />
    </clipPath>
    <clipPath
       clipPathUnits="userSpaceOnUse"
       id="clipPath959-3">
      <path
         style="color:#000000;display:inline;overflow:visible;visibility:visible;opacity:1;fill:#46a926;fill-opacity:1;fill-rule:nonzero;stroke:none;stroke-width:2;stroke-miterlimit:4;stroke-dasharray:none;stroke-opacity:1;marker:none;enable-background:accumulate"
         d="m 330.1929,133.99999 c -5.61538,0 -6.21958,0.57678 -6.19206,6.20352 v 7.79648 7.79648 c -0.0276,5.62673 0.57668,6.20351 6.19206,6.20351 h 11.615 c 5.6154,0 6.19208,-0.5767 6.19208,-6.20351 v -7.79648 -7.79648 c 0,-5.6268 -0.5767,-6.20352 -6.19208,-6.20352 z"
         id="path961-6"
         inkscape:connector-curvature="0"
         sodipodi:nodetypes="scccssscsss" />
    </clipPath>
    <clipPath
       clipPathUnits="userSpaceOnUse"
       id="clipPath959-7">
      <path
         style="color:#000000;display:inline;overflow:visible;visibility:visible;opacity:1;fill:#46a926;fill-opacity:1;fill-rule:nonzero;stroke:none;stroke-width:2;stroke-miterlimit:4;stroke-dasharray:none;stroke-opacity:1;marker:none;enable-background:accumulate"
         d="m 330.1929,133.99999 c -5.61538,0 -6.21958,0.57678 -6.19206,6.20352 v 7.79648 7.79648 c -0.0276,5.62673 0.57668,6.20351 6.19206,6.20351 h 11.615 c 5.6154,0 6.19208,-0.5767 6.19208,-6.20351 v -7.79648 -7.79648 c 0,-5.6268 -0.5767,-6.20352 -6.19208,-6.20352 z"
         id="path961-5"
         inkscape:connector-curvature="0"
         sodipodi:nodetypes="scccssscsss" />
    </clipPath>
    <clipPath
       clipPathUnits="userSpaceOnUse"
       id="clipPath959-35">
      <path
         style="color:#000000;display:inline;overflow:visible;visibility:visible;opacity:1;fill:#46a926;fill-opacity:1;fill-rule:nonzero;stroke:none;stroke-width:2;stroke-miterlimit:4;stroke-dasharray:none;stroke-opacity:1;marker:none;enable-background:accumulate"
         d="m 330.1929,133.99999 c -5.61538,0 -6.21958,0.57678 -6.19206,6.20352 v 7.79648 7.79648 c -0.0276,5.62673 0.57668,6.20351 6.19206,6.20351 h 11.615 c 5.6154,0 6.19208,-0.5767 6.19208,-6.20351 v -7.79648 -7.79648 c 0,-5.6268 -0.5767,-6.20352 -6.19208,-6.20352 z"
         id="path961-62"
         inkscape:connector-curvature="0"
         sodipodi:nodetypes="scccssscsss" />
    </clipPath>
    <clipPath
       clipPathUnits="userSpaceOnUse"
       id="clipPath959-9">
      <path
         style="color:#000000;display:inline;overflow:visible;visibility:visible;opacity:1;fill:#46a926;fill-opacity:1;fill-rule:nonzero;stroke:none;stroke-width:2;stroke-miterlimit:4;stroke-dasharray:none;stroke-opacity:1;marker:none;enable-background:accumulate"
         d="m 330.1929,133.99999 c -5.61538,0 -6.21958,0.57678 -6.19206,6.20352 v 7.79648 7.79648 c -0.0276,5.62673 0.57668,6.20351 6.19206,6.20351 h 11.615 c 5.6154,0 6.19208,-0.5767 6.19208,-6.20351 v -7.79648 -7.79648 c 0,-5.6268 -0.5767,-6.20352 -6.19208,-6.20352 z"
         id="path961-1"
         inkscape:connector-curvature="0"
         sodipodi:nodetypes="scccssscsss" />
    </clipPath>
    <clipPath
       clipPathUnits="userSpaceOnUse"
       id="clipPath959-2">
      <path
         style="color:#000000;display:inline;overflow:visible;visibility:visible;opacity:1;fill:#46a926;fill-opacity:1;fill-rule:nonzero;stroke:none;stroke-width:2;stroke-miterlimit:4;stroke-dasharray:none;stroke-opacity:1;marker:none;enable-background:accumulate"
         d="m 330.1929,133.99999 c -5.61538,0 -6.21958,0.57678 -6.19206,6.20352 v 7.79648 7.79648 c -0.0276,5.62673 0.57668,6.20351 6.19206,6.20351 h 11.615 c 5.6154,0 6.19208,-0.5767 6.19208,-6.20351 v -7.79648 -7.79648 c 0,-5.6268 -0.5767,-6.20352 -6.19208,-6.20352 z"
         id="path961-7"
         inkscape:connector-curvature="0"
         sodipodi:nodetypes="scccssscsss" />
    </clipPath>
    <clipPath
       clipPathUnits="userSpaceOnUse"
       id="clipPath1052">
      <path
         sodipodi:nodetypes="scccssscsss"
         inkscape:connector-curvature="0"
         id="path1054"
         d="m 333.1929,133.99999 c -5.61538,0 -6.21958,0.57678 -6.19206,6.20352 v 5.79648 5.79648 c -0.0276,5.62673 0.57668,6.20351 6.19206,6.20351 h 5.615 c 5.6154,0 6.19208,-0.5767 6.19208,-6.20351 v -5.79648 -5.79648 c 0,-5.6268 -0.5767,-6.20352 -6.19208,-6.20352 z"
         style="color:#000000;display:inline;overflow:visible;visibility:visible;opacity:1;fill:#46a926;fill-opacity:1;fill-rule:nonzero;stroke:none;stroke-width:2;stroke-miterlimit:4;stroke-dasharray:none;stroke-opacity:1;marker:none;enable-background:accumulate" />
    </clipPath>
    <linearGradient
       id="linearGradient4226"
       x1="529.65503"
       x2="-35.310001"
       y1="295.638"
       y2="295.638"
       gradientTransform="matrix(0,-0.11988932,-0.11988589,0,65.509395,290.16739)"
       gradientUnits="userSpaceOnUse">
      <stop
         style="stop-color:#999999"
         offset="0"
         id="stop7" />
      <stop
         style="stop-color:#b7b7b7"
         offset=".613"
         id="stop9" />
      <stop
         style="stop-color:#dbdbdb"
         offset="1"
         id="stop11" />
    </linearGradient>
    <clipPath
       clipPathUnits="userSpaceOnUse"
       id="clipPath994-1">
      <path
         style="color:#000000;display:inline;overflow:visible;visibility:visible;fill:#cdcdcd;fill-opacity:1;fill-rule:nonzero;stroke:none;stroke-width:2;stroke-miterlimit:4;stroke-dasharray:none;stroke-opacity:1;marker:none;enable-background:accumulate"
         d="m 335.73108,62 c -8.82418,0 -9.77365,0.90635 -9.7304,9.74838 V 84 96.25162 c -0.0433,8.84203 0.90622,9.74838 9.7304,9.74838 h 16.53919 c 8.82418,0 9.7304,-0.90625 9.7304,-9.74838 V 84 71.74838 C 362.00067,62.90625 361.09445,62 352.27027,62 Z"
         id="path996-8"
         inkscape:connector-curvature="0"
         sodipodi:nodetypes="scccssscsss" />
    </clipPath>
    <clipPath
       clipPathUnits="userSpaceOnUse"
       id="clipPath994-1-3">
      <path
         style="color:#000000;display:inline;overflow:visible;visibility:visible;fill:#cdcdcd;fill-opacity:1;fill-rule:nonzero;stroke:none;stroke-width:2;stroke-miterlimit:4;stroke-dasharray:none;stroke-opacity:1;marker:none;enable-background:accumulate"
         d="m 335.73108,62 c -8.82418,0 -9.77365,0.90635 -9.7304,9.74838 V 84 96.25162 c -0.0433,8.84203 0.90622,9.74838 9.7304,9.74838 h 16.53919 c 8.82418,0 9.7304,-0.90625 9.7304,-9.74838 V 84 71.74838 C 362.00067,62.90625 361.09445,62 352.27027,62 Z"
         id="path996-8-6"
         inkscape:connector-curvature="0"
         sodipodi:nodetypes="scccssscsss" />
    </clipPath>
    <clipPath
       clipPathUnits="userSpaceOnUse"
       id="clipPath1205">
      <path
         style="opacity:1;fill:#325fd1;fill-opacity:1;stroke:none;stroke-width:2;stroke-linecap:round;stroke-linejoin:round;stroke-miterlimit:4;stroke-dasharray:none;stroke-dashoffset:0;stroke-opacity:1"
         d="m 341.12109,133.5 c 9.08109,0 10.37891,1.29458 10.37891,10.36719 v 8.26562 c 0,9.07258 -1.29782,10.36719 -10.37891,10.36719 H 330.87891 C 321.79783,162.5 320.5,161.20539 320.5,152.13281 v -8.26562 c 0,-9.07261 1.29783,-10.36719 10.37891,-10.36719 z"
         id="path1207"
         inkscape:connector-curvature="0"
         sodipodi:nodetypes="sssssssss" />
    </clipPath>
    <clipPath
       clipPathUnits="userSpaceOnUse"
       id="clipPath951-3-0">
      <path
         style="opacity:1;fill:#8c59d9;fill-opacity:1;stroke:none;stroke-width:2;stroke-linecap:round;stroke-linejoin:round;stroke-miterlimit:4;stroke-dasharray:none;stroke-dashoffset:0;stroke-opacity:1"
         d="M 188.96875,44 C 261.6174,44 272,54.356615 272,126.9375 v 58.125 C 272,257.64309 261.6174,268 188.96875,268 h -73.9375 C 42.3826,268 32,257.64309 32,185.0625 v -58.125 C 32,54.356615 42.3826,44 115.03125,44 Z"
         id="path953-1-4"
         inkscape:connector-curvature="0"
         sodipodi:nodetypes="sssssssss" />
    </clipPath>
    <linearGradient
       inkscape:collect="always"
       xlink:href="#linearGradient927"
       id="linearGradient1004-8"
       x1="344"
       y1="62"
       x2="344"
       y2="106"
       gradientUnits="userSpaceOnUse" />
    <linearGradient
       inkscape:collect="always"
       id="linearGradient927">
      <stop
         style="stop-color:#ffffff;stop-opacity:1;"
         offset="0"
         id="stop923" />
      <stop
         id="stop933"
         offset="0.125"
         style="stop-color:#ffffff;stop-opacity:0.09803922" />
      <stop
         id="stop931"
         offset="0.92500001"
         style="stop-color:#ffffff;stop-opacity:0.09803922" />
      <stop
         style="stop-color:#ffffff;stop-opacity:0.49803922"
         offset="1"
         id="stop925" />
    </linearGradient>
    <clipPath
       clipPathUnits="userSpaceOnUse"
       id="clipPath994-1-7">
      <path
         style="color:#000000;display:inline;overflow:visible;visibility:visible;fill:#cdcdcd;fill-opacity:1;fill-rule:nonzero;stroke:none;stroke-width:2;stroke-miterlimit:4;stroke-dasharray:none;stroke-opacity:1;marker:none;enable-background:accumulate"
         d="m 335.73108,62 c -8.82418,0 -9.77365,0.90635 -9.7304,9.74838 V 84 96.25162 c -0.0433,8.84203 0.90622,9.74838 9.7304,9.74838 h 16.53919 c 8.82418,0 9.7304,-0.90625 9.7304,-9.74838 V 84 71.74838 C 362.00067,62.90625 361.09445,62 352.27027,62 Z"
         id="path996-8-5"
         inkscape:connector-curvature="0"
         sodipodi:nodetypes="scccssscsss" />
    </clipPath>
    <linearGradient
       inkscape:collect="always"
       xlink:href="#linearGradient916"
       id="linearGradient1688"
       x1="321.50003"
       y1="148"
       x2="350.50003"
       y2="148"
       gradientUnits="userSpaceOnUse"
       gradientTransform="rotate(90,242.25009,-78.249929)" />
    <linearGradient
       inkscape:collect="always"
       id="linearGradient916">
      <stop
         style="stop-color:#2f5fdd;stop-opacity:1"
         offset="0"
         id="stop912" />
      <stop
         style="stop-color:#5884f4;stop-opacity:1"
         offset="1"
         id="stop914" />
    </linearGradient>
  </defs>
  <sodipodi:namedview
     pagecolor="#ffffff"
     bordercolor="#666666"
     borderopacity="1"
     objecttolerance="10"
     gridtolerance="10"
     guidetolerance="10"
     inkscape:pageopacity="0"
     inkscape:pageshadow="2"
     inkscape:window-width="1920"
     inkscape:window-height="1016"
     id="namedview10"
     showgrid="false"
     inkscape:zoom="14.75"
     inkscape:cx="-4.112662"
     inkscape:cy="8"
     inkscape:window-x="0"
     inkscape:window-y="27"
     inkscape:window-maximized="1"
     inkscape:current-layer="svg8" />
  <path
     style="color:#000000;font-style:normal;font-variant:normal;font-weight:normal;font-stretch:normal;font-size:medium;line-height:normal;font-family:sans-serif;font-variant-ligatures:normal;font-variant-position:normal;font-variant-caps:normal;font-variant-numeric:normal;font-variant-alternates:normal;font-feature-settings:normal;text-indent:0;text-align:start;text-decoration:none;text-decoration-line:none;text-decoration-style:solid;text-decoration-color:#000000;letter-spacing:normal;word-spacing:normal;text-transform:none;writing-mode:lr-tb;direction:ltr;text-orientation:mixed;dominant-baseline:auto;baseline-shift:baseline;text-anchor:start;white-space:normal;shape-padding:0;clip-rule:nonzero;display:inline;overflow:visible;visibility:visible;opacity:0.1;isolation:auto;mix-blend-mode:normal;color-interpolation:sRGB;color-interpolation-filters:linearRGB;solid-color:#000000;solid-opacity:1;vector-effect:none;fill:#000000;fill-opacity:1;fill-rule:nonzero;stroke:none;stroke-width:2;stroke-linecap:butt;stroke-linejoin:miter;stroke-miterlimit:4;stroke-dasharray:none;stroke-dashoffset:0;stroke-opacity:1;marker:none;color-rendering:auto;image-rendering:auto;shape-rendering:auto;text-rendering:auto;enable-background:accumulate"
     d="m 9.0776719,1.5000003 c -1.69415,0 -3.0388598,0.0308 -4.1798998,0.19141 -1.14103,0.16064 -2.13588,0.4726 -2.87586,1.09179 -0.73998,0.61919 -1.11651995,1.45612 -1.30635995,2.41407 -0.18986,0.95795 -0.22255,2.08705 -0.21424,3.51171 V 16.5 24.29688 c -0.009,1.42131 0.0247,2.5495 0.21424,3.50585 0.18984,0.95796 0.56637995,1.79488 1.30635995,2.41407 0.73998,0.61919 1.73483,0.93115 2.87586,1.09179 C 6.0388121,31.46924 7.3835219,31.5 9.0776719,31.5 H 22.926072 c 1.69415,0 3.03631,-0.0307 4.17524,-0.19141 1.13893,-0.16075 2.13151,-0.47425 2.86888,-1.09375 0.73736,-0.6195 1.1104,-1.45363 1.30169,-2.41015 0.19132,-0.95653 0.22822,-2.08403 0.22822,-3.50781 V 16.5 8.7031203 c 0,-1.42378 -0.037,-2.55128 -0.22822,-3.50781 -0.19129,-0.95653 -0.56433,-1.79065 -1.30169,-2.41015 -0.73737,-0.61951 -1.72995,-0.933 -2.86888,-1.09375 -1.13893,-0.16076 -2.48109,-0.19141 -4.17524,-0.19141 z"
     id="path999"
     inkscape:connector-curvature="0"
     sodipodi:nodetypes="scscccccscsscccscscscss" />
  <path
     style="color:#000000;display:inline;overflow:visible;visibility:visible;fill:url(#linearGradient1688);fill-opacity:1;fill-rule:nonzero;stroke:none;stroke-width:1;marker:none;enable-background:accumulate"
     d="m 9.1272519,1.0000003 c -6.4516298,0 -7.6602998,0.58409 -7.6263898,6.28227 V 15.49992 23.71773 C 1.4668621,29.41591 2.6756221,30 9.1272519,30 H 22.873762 c 6.45003,0 7.62639,-0.58403 7.62639,-6.28227 V 15.49992 7.2822703 c 0,-5.69824 -1.17636,-6.28227 -7.62639,-6.28227 z"
     id="path964-7"
     inkscape:connector-curvature="0"
     sodipodi:nodetypes="scccssscsss" />
  <path
     id="path935-3"
     d="m 15.998162,7.5020103 c -1.10456,0 -1.99999,0.89543 -1.99999,1.99998 0,1.1045697 0.89543,1.9999997 1.99999,1.9999997 1.10457,0 1.99999,-0.89543 1.99999,-1.9999997 0,-1.10455 -0.89542,-1.99998 -1.99999,-1.99998 z M 9.0001619,12.49994 v 1 l 2.2377701,0.004 c 0.52118,-10e-6 0.96402,0.0752 1.32861,0.23486 0.35813,0.14879 0.65187,0.3682 0.86767,0.65527 0.22113,0.27541 0.37468,0.60682 0.46094,0.98632 0.0868,0.38212 0.0994,0.78566 0.12597,1.2124 l 4.9e-4,0.006 -0.009,6.9033 h 0.98584 v -4.00215 c 0,-0.55229 0.44771,-1 0.99999,-1 0.55228,0 1,0.44771 1,1 v 4.00215 h 0.99999 l 0.009,-6.89744 c 10e-4,-0.44248 0.0421,-0.85073 0.12695,-1.22412 0.0864,-0.38013 0.2402,-0.7121 0.46192,-0.98778 0.21581,-0.28643 0.50945,-0.50577 0.86718,-0.6543 0.36441,-0.15939 0.88033,-0.23437 1.32763,-0.23437 l 2.20905,-0.002 v -1.00195 z"
     style="font-style:normal;font-variant:normal;font-weight:normal;font-stretch:normal;font-size:15px;line-height:125%;font-family:Ubuntu;-inkscape-font-specification:Ubuntu;text-align:center;letter-spacing:0px;word-spacing:0px;writing-mode:lr-tb;text-anchor:middle;display:inline;fill:#faf8f6;fill-opacity:1;stroke:none;stroke-width:0.12499943;enable-background:new"
     inkscape:connector-curvature="0"
     sodipodi:nodetypes="sssssccccccccccsssccccccsccc" />
  <path
     style="color:#000000;display:inline;overflow:visible;visibility:visible;opacity:0.4;fill:none;fill-opacity:1;fill-rule:nonzero;stroke:#000000;stroke-width:1;stroke-miterlimit:4;stroke-dasharray:none;stroke-opacity:1;marker:none;enable-background:accumulate"
     d="m 9.1272519,1.0000003 c -6.4516298,0 -7.6602998,0.58409 -7.6263898,6.28227 V 15.49992 23.71773 C 1.4668621,29.41591 2.6756221,30 9.1272519,30 H 22.873762 c 6.45003,0 7.62639,-0.58403 7.62639,-6.28227 V 15.49992 7.2822703 c 0,-5.69824 -1.17636,-6.28227 -7.62639,-6.28227 z"
     id="path958-1"
     inkscape:connector-curvature="0"
     sodipodi:nodetypes="scccssscsss" />
  <path
     transform="matrix(0.7733047,0,0,0.63636364,-250.01667,-37.954546)"
     sodipodi:nodetypes="scccssscsss"
     inkscape:connector-curvature="0"
     id="path990-8"
     d="m 335.73108,62 c -8.82418,0 -9.77365,0.90635 -9.7304,9.74838 V 84 96.25162 c -0.0433,8.84203 0.90622,9.74838 9.7304,9.74838 h 16.53919 c 8.82418,0 9.7304,-0.90625 9.7304,-9.74838 V 84 71.74838 C 362.00067,62.90625 361.09445,62 352.27027,62 Z"
     style="color:#000000;display:inline;overflow:visible;visibility:visible;opacity:0.7;fill:none;fill-opacity:1;fill-rule:nonzero;stroke:url(#linearGradient1004-8);stroke-width:2.8510313;stroke-miterlimit:4;stroke-dasharray:none;stroke-opacity:1;marker:none;enable-background:accumulate"
     clip-path="url(#clipPath994-1-7)" />
</svg>
